src/actions/24/vcs-diff-cvs-cervisia.svg

<svg xmlns="http://www.w3.org/2000/svg" viewBox="0 0 24 24">
  <defs id="defs3051">
    <style type="text/css" id="current-color-scheme">
      .ColorScheme-Text {
        color:#2e3440;
      }
      </style>
  </defs><g transform="translate(1,1)">
  <path
     style="fill:currentColor;fill-opacity:1;stroke:none" 
     d="M 11 3 C 6.5817225 3 3 4.3431457 3 6 L 3 16 C 3 17.656854 6.5817225 19 11 19 C 12.551179 18.999454 14.068479 18.82981 15.367188 18.511719 L 15.878906 18 L 10.878906 18 L 10.876953 17.998047 C 7.0618026 17.97893 4 17.090225 4 16 L 4 12.451172 C 4.5933361 12.850712 5.4224003 13.194095 6.4238281 13.455078 L 7.2011719 12.677734 C 5.2076011 12.309715 4.0025316 11.678139 4 11 L 4 7.4511719 C 5.4081159 8.4065815 8.08901 8.9997592 11 9 C 13.914295 8.9985818 16.595979 8.4029845 18 7.4453125 L 18 11 C 18 11.34283 17.68831 11.679784 17.099609 11.978516 L 17.734375 12.613281 C 17.827754 12.558387 17.916343 12.502369 18 12.445312 L 18 12.878906 L 19 13.878906 L 19 6 C 18.999999 4.3431457 15.418277 3 11 3 z M 11 4 C 14.865993 4 18 4.8954305 18 6 C 18 7.1045695 14.865993 8 11 8 C 7.1340068 8 4 7.1045695 4 6 C 4 4.8954305 7.1340068 4 11 4 z M 11.292969 10 L 7.7929688 13.5 L 11.292969 17 L 12 16.292969 L 9.7070312 14 L 15 14 L 15 13 L 9.7070312 13 L 12 10.707031 L 11.292969 10 z M 16.707031 13 L 16 13.707031 L 18.292969 16 L 13 16 L 13 17 L 18.292969 17 L 16 19.292969 L 16.707031 20 L 20.207031 16.5 L 16.707031 13 z "
     class="ColorScheme-Text" />
</g></svg>

<svg viewBox="0 0 24 24" xmlns="http://www.w3.org/2000/svg">
 <defs>
  <style type="text/css">.ColorScheme-Text {
        color:#2e3440;
      }</style>
 </defs>
 <g transform="translate(1,1)">
  <path class="ColorScheme-Text" d="m11 3c-4.4183 0-8 1.3431-8 3v10c0 1.6569 3.5817 3 8 3 1.5512-5.46e-4 3.0685-0.17019 4.3672-0.48828l0.51172-0.51172h-5l-0.001953-0.001953c-3.8152-0.019117-6.877-0.90782-6.877-1.998v-3.5488c0.59334 0.39954 1.4224 0.74292 2.4238 1.0039l0.77734-0.77734c-1.9936-0.36802-3.1986-0.9996-3.2012-1.6777v-3.5488c1.4081 0.95541 4.089 1.5486 7 1.5488 2.9143-0.0014182 5.596-0.59702 7-1.5547v3.5547c0 0.34283-0.31169 0.67978-0.90039 0.97852l0.63477 0.63476c0.093379-0.054894 0.18197-0.11091 0.26562-0.16797v0.43359l1 1v-7.8789c-1e-6 -1.6569-3.5817-3-8-3zm0 1c3.866 0 7 0.89543 7 2s-3.134 2-7 2c-3.866 0-7-0.89543-7-2s3.134-2 7-2zm0.29297 6-3.5 3.5 3.5 3.5 0.70703-0.70703-2.293-2.293h5.293v-1h-5.293l2.293-2.293-0.70703-0.70703zm5.4141 3-0.70703 0.70703 2.293 2.293h-5.293v1h5.293l-2.293 2.293 0.70703 0.70703 3.5-3.5-3.5-3.5z" fill="currentColor"/>
 </g>
</svg>
